src/pos-icons/flag-minus-outline.svg

<svg height="24" viewBox="0 0 24 24" width="24" xmlns="http://www.w3.org/2000/svg"><path d="m12.36 6 .4 2h5.24v6h-3.36l-.4-2h-7.24v-6zm1.64-2h-9v17h2v-7h5.6l.4 2h7v-10h-5.6m8.6 12h-8v2h8z"/></svg>

<?xml version="1.0" encoding="UTF-8"?><!DOCTYPE svg PUBLIC "-//W3C//DTD SVG 1.1//EN" "http://www.w3.org/Graphics/SVG/1.1/DTD/svg11.dtd"><svg xmlns="http://www.w3.org/2000/svg" xmlns:xlink="http://www.w3.org/1999/xlink" version="1.1" id="mdi-flag-minus-outline" width="24" height="24" viewBox="0 0 24 24"><path d="M12.36 6L12.76 8H18V14H14.64L14.24 12H7V6H12.36M14 4H5V21H7V14H12.6L13 16H20V6H14.4M23 18H15V20H23V18Z" /></svg>
